svgs/unicorn_dark.svg

<?xml version="1.0" encoding="UTF-8" standalone="no"?>
<svg
   xmlns:dc="http://purl.org/dc/elements/1.1/"
   xmlns:cc="http://creativecommons.org/ns#"
   xmlns:rdf="http://www.w3.org/1999/02/22-rdf-syntax-ns#"
   xmlns:svg="http://www.w3.org/2000/svg"
   xmlns="http://www.w3.org/2000/svg"
   xmlns:sodipodi="http://sodipodi.sourceforge.net/DTD/sodipodi-0.dtd"
   xmlns:inkscape="http://www.inkscape.org/namespaces/inkscape"
   version="1.1"
   width="80"
   height="80"
   id="svg12"
   sodipodi:docname="unicorn_dark.svg"
   inkscape:version="0.92.4 (5da689c313, 2019-01-14)">
  <metadata
     id="metadata18">
    <rdf:RDF>
      <cc:Work
         rdf:about="">
        <dc:format>image/svg+xml</dc:format>
        <dc:type
           rdf:resource="http://purl.org/dc/dcmitype/StillImage" />
        <dc:title></dc:title>
      </cc:Work>
    </rdf:RDF>
  </metadata>
  <defs
     id="defs16" />
  <sodipodi:namedview
     pagecolor="#ffffff"
     bordercolor="#666666"
     borderopacity="1"
     objecttolerance="10"
     gridtolerance="10"
     guidetolerance="10"
     inkscape:pageopacity="0"
     inkscape:pageshadow="2"
     inkscape:window-width="1920"
     inkscape:window-height="1017"
     id="namedview14"
     showgrid="false"
     inkscape:pagecheckerboard="true"
     inkscape:zoom="5.2444444"
     inkscape:cx="22.5"
     inkscape:cy="22.5"
     inkscape:window-x="-8"
     inkscape:window-y="-8"
     inkscape:window-maximized="1"
     inkscape:current-layer="svg12" />
  <g
     id="g10"
     transform="matrix(2.0416329,0,0,2.0416329,-3.8550663,-6.7416935)">
    <title
       id="title2">Unicorn</title>
    <g
       id="Head"
       style="opacity:1;fill:none;fill-opacity:1;fill-rule:evenodd;stroke:#000000;stroke-width:1.5;stroke-linecap:round;stroke-linejoin:round;stroke-miterlimit:4;stroke-dasharray:none;stroke-opacity:1">
      <path
         id="Neck"
         d="m 22,10 c 10.5,1 16.5,8 16,29 H 15 c 0,-9 10,-6.5 8,-21"
         style="fill:#000000;stroke:#000000"
         inkscape:connector-curvature="0" />
      <path
         id="Face"
         d="m 24,18 c 0.38,2.91 -5.55,7.37 -8,9 -3,2 -2.82,4.34 -5,4 -1.042,-0.94 1.41,-3.04 0,-3 -1,0 0.19,1.23 -1,2 C 9,30 6,31 6,26 6,24 12,14 12,14 12,14 4.4725,7.525 4.9587,6.85 5.445,6.175 13.945,11.3 14,10.5 c -0.73,-0.994 -0.5,-2 -0.5,-3 1,-1 3,2.5 3,2.5 h 2 c 0,0 0.78,-1.992 2.5,-3 1,0 1,3 1,3"
         style="fill:#000000;stroke:#000000"
         inkscape:connector-curvature="0" />
      <path
         id="Nose"
         d="m 9.5,25.5 a 0.5,0.5 0 1 1 -1,0 0.5,0.5 0 1 1 1,0 z"
         style="fill:#ffffff;stroke:#ffffff"
         inkscape:connector-curvature="0" />
      <path
         id="Eye"
         d="m 15,15.5 a 0.5,1.5 0 1 1 -1,0 0.5,1.5 0 1 1 1,0 z"
         transform="matrix(0.866,0.5,-0.5,0.866,9.693,-5.173)"
         style="fill:#ffffff;stroke:#ffffff"
         inkscape:connector-curvature="0" />
      <path
         id="Mane"
         d="M 24.55,10.4 24.1,11.85 24.6,12 c 3.15,1 5.65,2.49 7.9,6.75 2.25,4.26 3.25,10.31 2.75,20.25 l -0.05,0.5 h 2.25 L 37.5,39 C 38,28.94 36.62,22.15 34.25,17.66 31.88,13.17 28.46,11.02 25.06,10.5 Z"
         style="fill:#ffffff;stroke:none"
         inkscape:connector-curvature="0" />
    </g>
  </g>
</svg>

<?xml version="1.0" encoding="UTF-8" standalone="no"?>
<!DOCTYPE svg PUBLIC "-//W3C//DTD SVG 1.1//EN" "http://www.w3.org/Graphics/SVG/1.1/DTD/svg11.dtd">
<svg xmlns="http://www.w3.org/2000/svg" version="1.1" width="45" height="45">
 <g>
  <title>Unicorn</title>
  <g id="Head" style="opacity:1; fill:none; fill-opacity:1; fill-rule:evenodd; stroke:#000000; stroke-width:1.5; stroke-linecap:round;stroke-linejoin:round;stroke-miterlimit:4; stroke-dasharray:none; stroke-opacity:1;">
    <path id="Neck" d="M 22,10 C 32.5,11 38.5,18 38,39 L 15,39 C 15,30 25,32.5 23,18" style="fill:#000000; stroke:#000000;"/>
    <path id="Face" fill="#000000" d="m24,18c0.38,2.91 -5.55,7.37 -8,9c-3,2 -2.82,4.34 -5,4c-1.042,-0.94 1.41,-3.04 0,-3c-1,0 0.19,1.23 -1,2c-1,0 -4,1 -4,-4c0,-2 6,-12 6,-12c0,0 -7.5275,-6.475 -7.0413,-7.15c0.4863,-0.675 8.9863,4.45 9.0413,3.65c-0.73,-0.994 -0.5,-2 -0.5,-3c1,-1 3,2.5 3,2.5l2,0c0,0 0.78,-1.992 2.5,-3c1,0 1,3 1,3" style="fill:#000000; stroke:#000000;"/>
    <path id="Nose" d="M 9.5 25.5 A 0.5 0.5 0 1 1 8.5,25.5 A 0.5 0.5 0 1 1 9.5 25.5 z" style="fill:#ffffff; stroke:#ffffff;"/>
    <path id="Eye" d="M 15 15.5 A 0.5 1.5 0 1 1  14,15.5 A 0.5 1.5 0 1 1  15 15.5 z" transform="matrix(0.866,0.5,-0.5,0.866,9.693,-5.173)" style="fill:#ffffff; stroke:#ffffff;"/>
    <path id="Mane" d="M 24.55,10.4 L 24.1,11.85 L 24.6,12 C 27.75,13 30.25,14.49 32.5,18.75 C 34.75,23.01 35.75,29.06 35.25,39 L 35.2,39.5 L 37.45,39.5 L 37.5,39 C 38,28.94 36.62,22.15 34.25,17.66 C 31.88,13.17 28.46,11.02 25.06,10.5 L 24.55,10.4 z " style="fill:#ffffff; stroke:none;"/>
  </g>
 </g>
</svg>
